components/notice-bar/style/assets/trips.svg

<?xml version="1.0" encoding="UTF-8"?>
<svg width="38px" height="33px" viewBox="0 0 38 33" version="1.1" xmlns="http://www.w3.org/2000/svg" xmlns:xlink="http://www.w3.org/1999/xlink">
    <!-- Generator: Sketch 40.3 (33839) - http://www.bohemiancoding.com/sketch -->
    <title>trips</title>
    <desc>Created with Sketch.</desc>

    <g id="Page-1" stroke="none" stroke-width="1"  fill-rule="evenodd">
        <g id="trips" transform="translate(-3.000000, -6.000000)">
            <g id="公告" transform="translate(3.000000, 6.000000)">
                <g id="Group">
                    <g id="Clipped">
                        <g id="SVGID_1_"></g>
                        <path d="M17.8380885,28.8008456 C17.2741703,28.3318378 16.6455959,27.816834 16.0021839,27.3037838 C11.7577003,23.9185869 10.7075891,23.6354324 9.99594098,23.6354324 C9.98183655,23.6354324 9.96876731,23.6390425 9.95483541,23.6394672 C9.94090352,23.6390425 9.92774801,23.6354324 9.91372985,23.6354324 L3.56156186,23.6354324 C2.82839047,23.6354324 2.65879228,23.431529 2.65879228,22.7067181 L2.65879228,10.0854286 C2.65879228,9.59442085 2.71775482,9.28574131 3.32014756,9.28574131 L9.10192736,9.28574131 C9.79489898,9.28574131 10.8596322,9.00560232 15.5026629,5.65680309 C16.3303814,5.06 17.1386901,4.460139 17.8381317,3.93392278 L17.8381317,28.8008456 L17.8380885,28.8008456 L17.8380885,28.8008456 Z M19.6822747,0.191416988 C19.2187696,-0.0285830116 18.6682656,0.0318532819 18.265319,0.347413127 C18.2459955,0.362745174 16.2823314,1.89938996 14.1134415,3.47234749 C10.340874,6.2085444 9.24266969,6.66417375 9.01988876,6.73658687 L3.67638138,6.73658687 C3.64929398,6.73658687 3.62332804,6.74015444 3.59641317,6.74066409 L1.18330533,6.74066409 C0.574960272,6.74066409 0.0818660613,7.22619305 0.0818660613,7.82520463 L0.0818660613,25.1392046 C0.0818660613,25.7381313 0.574960272,26.2237452 1.18330533,26.2237452 L9.89440636,26.2240849 C10.1138229,26.3026988 11.1503042,26.7748069 14.4976686,29.4626718 C16.4448558,31.0260309 18.1924245,32.5521853 18.2098502,32.5672625 C18.4601067,32.7860309 18.7780817,32.9002355 19.1001975,32.9002355 C19.2858842,32.9002355 19.4731237,32.8620965 19.6493212,32.7841197 C20.130597,32.5710425 20.4401612,32.1000386 20.4401612,31.5801506 L20.4401612,1.38022394 C20.4404631,0.873714286 20.1458229,0.411586873 19.6822747,0.191416988 L19.6822747,0.191416988 Z" id="Shape" mask="url(#mask-2)"></path>
                    </g>
                    <g id="Clipped">
                        <g id="SVGID_1_"></g>
                        <path d="M31.41884,16.4745174 C31.41884,13.1115328 29.566286,10.177888 26.8136368,8.5987722 C26.688681,8.53366409 26.3941703,8.40794981 26.1889875,8.40794981 C25.5777094,8.40794981 25.0820704,8.89598456 25.0820704,9.49788417 C25.0820704,9.90182625 25.3007106,10.2621931 25.6320999,10.4504672 C27.7604881,11.6411853 29.1970692,13.8919807 29.1970692,16.4745174 C29.1970692,19.1024131 27.7105403,21.388417 25.5202565,22.5618494 C25.2015914,22.7531815 24.9901975,23.1012741 24.9901975,23.4957452 C24.9901975,24.0976448 25.4858365,24.585722 26.0971146,24.585722 C26.3568604,24.587973 26.6645267,24.4372008 26.6645267,24.4372008 C29.5000772,22.8798301 31.41884,19.8984903 31.41884,16.4745174" id="Shape" mask="url(#mask-4)"></path>
                    </g>
                    <g id="Clipped">
                        <g id="SVGID_1_"></g>
                        <path d="M30.1410306,3.05655598 C29.9354597,2.93530116 29.7303201,2.83642857 29.4821771,2.83642857 C28.8739183,2.83642857 28.3807378,3.32195753 28.3807378,3.92096911 C28.3807378,4.35255985 28.6413462,4.69980309 29.0094847,4.89669884 C33.05284,7.21977992 35.7724064,11.5325869 35.7724064,16.4745174 C35.7724064,21.4131776 33.0561612,25.7233514 29.0172917,28.0474942 C28.6629557,28.2368726 28.3577911,28.5957954 28.3577911,29.0397027 C28.3577911,29.6386293 28.8509285,30.1242432 29.4592304,30.1242432 C29.7034484,30.1242432 29.8982792,30.0318263 30.10963,29.9109112 C34.8016595,27.2147645 37.9575142,22.2096371 37.9575142,16.4745598 C37.9575142,10.7523089 34.8155482,5.75690734 30.1410306,3.05655598" id="Shape" mask="url(#mask-6)"></path>
                    </g>
                </g>
            </g>
        </g>
    </g>
</svg>

<svg width="38" height="33" viewBox="0 0 38 33" xmlns="http://www.w3.org/2000/svg"><title>trips</title><g fill-rule="evenodd"><path d="M17.838 28.8c-.564-.468-1.192-.983-1.836-1.496-4.244-3.385-5.294-3.67-6.006-3.67-.014 0-.027.005-.04.005-.015 0-.028-.005-.042-.005H3.562c-.734 0-.903-.203-.903-.928V10.085c0-.49.058-.8.66-.8h5.782c.693 0 1.758-.28 6.4-3.628.828-.597 1.637-1.197 2.336-1.723V28.8zM19.682.19c-.463-.22-1.014-.158-1.417.157-.02.016-1.983 1.552-4.152 3.125C10.34 6.21 9.243 6.664 9.02 6.737H3.676c-.027 0-.053.003-.08.004H1.183c-.608 0-1.1.486-1.1 1.085V25.14c0 .598.492 1.084 1.1 1.084h8.71c.22.08 1.257.55 4.605 3.24 1.947 1.562 3.694 3.088 3.712 3.103.25.22.568.333.89.333.186 0 .373-.038.55-.116.48-.213.79-.684.79-1.204V1.38c0-.506-.294-.968-.758-1.19z" mask="url(#mask-2)"/><path d="M31.42 16.475c0-3.363-1.854-6.297-4.606-7.876-.125-.066-.42-.192-.625-.192-.612 0-1.108.488-1.108 1.09 0 .404.22.764.55.952 2.128 1.19 3.565 3.442 3.565 6.025 0 2.627-1.486 4.913-3.677 6.087-.318.19-.53.54-.53.934 0 .602.496 1.09 1.107 1.09.26.002.568-.15.568-.15 2.835-1.556 4.754-4.538 4.754-7.96" mask="url(#mask-4)"/><g><path d="M30.14 3.057c-.205-.122-.41-.22-.658-.22-.608 0-1.1.485-1.1 1.084 0 .433.26.78.627.977 4.043 2.323 6.762 6.636 6.762 11.578 0 4.938-2.716 9.248-6.755 11.572-.354.19-.66.55-.66.993 0 .6.494 1.084 1.102 1.084.243 0 .438-.092.65-.213 4.692-2.695 7.848-7.7 7.848-13.435 0-5.723-3.142-10.718-7.817-13.418" mask="url(#mask-6)"/></g></g></svg>
